X: 5362
T: Bucklebury, The
R: hornpipe
M: 4/4
K: Gmajor
|:BA|"G"~G2 FG BGFG|dGFG BGFG|"Am"E2 cB~A2 FG|"D"A2 FA dcBA|
"G"~G2 FG BGFG|dGFG Bdef|~g2 fa "C"ge"D"dc|"G"B2G2G2:|
|:Bc|"G"~d2 Bd gdBd|"C"~e2 ce gece|"G"~d2 Bd gdcB|"D"~A2 FA DAFA|
"G"~B2 GB dgfg|"C"egdg "Am"cgBg|"D"A2 ag ~f2 ef|"G"g2 G2 G2:|

